X:21
T:Happy One-Step, The
R:misc
D:Sharon Shannon
Z:id:hn-misc-21
M:C
L:1/8
K:G
dGB d2 GBd | gce g2 age | dGB d2 BBA | AGGE D2GB |
dGB d2 GBd | gce g2 age | dGBG AGED |1 EGG G3 GB :|2 EGG G3 ga ||
bdb b2 dbd | ada a2 dad | bdb b2 dbd | c'dc' c'2 dc'd |
bdb b2 dbd | ada a2 dad | bdb b2 dbd | c'dbd adge ||  

